public/img/seo__logo.svg

<svg enable-background="new 0 0 342.7 342.7" viewBox="0 0 342.7 342.7" xmlns="http://www.w3.org/2000/svg"><g fill="#333"><path d="m291.2 90.5v8.9h-11.7c14.8 21.3 23.5 47.1 23.5 75-.1 72.6-59 131.6-131.7 131.6-40.8 0-77.3-18.6-101.4-47.8v21.6c26.3 25.3 62.1 40.9 101.4 40.9 80.8 0 146.3-65.5 146.3-146.3 0-31.2-9.8-60.2-26.4-83.9z" stroke="#333" stroke-miterlimit="10"/><path d="m42.3 238.4h14c-10.6-18.9-16.6-40.8-16.6-64 0-72.7 58.9-131.6 131.6-131.6 35.9 0 68.5 14.4 92.2 37.8v-19.7c-25.2-20.5-57.3-32.8-92.2-32.8-80.8 0-146.3 65.5-146.3 146.3 0 24.9 6.3 48.4 17.3 69z" stroke="#333" stroke-miterlimit="10"/><path d="m179.8 137.6h-67.5v-16.9h67.5zm0 33.7h-67.5v-16.9h67.5zm68.9 101.3-62.3-62.3c-11.7 7.4-25.5 11.7-40.4 11.7-41.9 0-75.9-34-75.9-75.9s34-75.9 75.9-75.9 75.9 34 75.9 75.9c0 14.9-4.3 28.7-11.7 40.4l62.3 62.3c.1-.1-23.8 23.8-23.8 23.8zm-102.7-67.5c32.6 0 59.1-26.5 59.1-59.1s-26.5-59-59.1-59-59 26.5-59 59 26.5 59.1 59 59.1z"/></g></svg>

<?xml version="1.0" encoding="utf-8"?>
<svg version="1.1" xmlns="http://www.w3.org/2000/svg" xmlns:xlink="http://www.w3.org/1999/xlink" x="0px" y="0px"
	 viewBox="0 0 342.7 342.7" style="enable-background:new 0 0 342.7 342.7;" xml:space="preserve">
	<style type="text/css">
		.st1{fill:#333333;stroke:#333333;stroke-miterlimit:10;}
		.st2{fill:#333333;}
	</style>
	<g id="Capa_1">
		<path class="st1" d="M291.2,90.5v8.9h-11.7c14.8,21.3,23.5,47.1,23.5,75C302.9,247,244,306,171.3,306
			c-40.8,0-77.3-18.6-101.4-47.8v21.6c26.3,25.3,62.1,40.9,101.4,40.9c80.8,0,146.3-65.5,146.3-146.3
			C317.6,143.2,307.8,114.2,291.2,90.5z"/>
		<path class="st1" d="M42.3,238.4h14c-10.6-18.9-16.6-40.8-16.6-64c0-72.7,58.9-131.6,131.6-131.6c35.9,0,68.5,14.4,92.2,37.8V60.9
			c-25.2-20.5-57.3-32.8-92.2-32.8c-80.8,0-146.3,65.5-146.3,146.3c0,24.9,6.3,48.4,17.3,69V238.4z"/>
	</g>
	<g id="Layer_3">
		<path class="st2" d="M179.8,137.6h-67.5v-16.9h67.5V137.6z M179.8,171.3h-67.5v-16.9h67.5V171.3z M248.7,272.6l-62.3-62.3
			c-11.7,7.4-25.5,11.7-40.4,11.7c-41.9,0-75.9-34-75.9-75.9s34-75.9,75.9-75.9s75.9,34,75.9,75.9c0,14.9-4.3,28.7-11.7,40.4
			l62.3,62.3C272.6,248.7,248.7,272.6,248.7,272.6z M146,205.1c32.6,0,59.1-26.5,59.1-59.1S178.6,87,146,87S87,113.5,87,146
			S113.5,205.1,146,205.1z"/>
	</g>
</svg>
